connector_importer/static/description/icon.svg

<svg version="1.1" xmlns="http://www.w3.org/2000/svg" xmlns:xlink="http://www.w3.org/1999/xlink" width="70" height="70" viewBox="0,0,70,70"><!-- Generated with https://ivantodorovich.github.io/odoo-icon --><defs><linearGradient x1="70" y1="0" x2="0" y2="70" gradientUnits="userSpaceOnUse" id="color-1"><stop offset="0" stop-color="#ff8451"/><stop offset="1" stop-color="#f4511e"/></linearGradient></defs><g fill="none" fill-rule="nonzero" stroke="none" stroke-width="1" stroke-linecap="butt" stroke-linejoin="miter" stroke-miterlimit="10" stroke-dasharray="" stroke-dashoffset="0" font-family="none" font-weight="none" font-size="none" text-anchor="none" style="mix-blend-mode: normal"><path d="M3.5,70c-1.933,0 -3.5,-1.567 -3.5,-3.5v-63c0,-1.933 1.567,-3.5 3.5,-3.5h63c1.933,0 3.5,1.567 3.5,3.5v63c0,1.933 -1.567,3.5 -3.5,3.5z" id="box" fill="url(#color-1)"/><path d="M65,1h-61c-1.95033,0 -3.2667,0.63396 -3.9491,1.90189c0.28378,-1.64806 1.72001,-2.90189 3.4491,-2.90189h63c1.72965,0 3.16627,1.25466 3.44938,2.90352c-0.69803,-1.26902 -2.34782,-1.90352 -4.94938,-1.90352z" id="topBoxShadow" fill="#ffffff" opacity="0.383"/><path d="M4,69h61c2.66667,0 4.33333,-1 5,-3v0.5c0,1.933 -1.567,3.5 -3.5,3.5h-63c-1.933,0 -3.5,-1.567 -3.5,-3.5c0,-0.1611 0,-0.32777 0,-0.5c0.66667,2 2,3 4,3z" id="bottomBoxShadow" fill="#000000" opacity="0.383"/><path d="M33.23077,19.30769h23v3.53846h-23zM33.23077,51.15385h23v3.53846h-23zM13.76923,35.23077h23v3.53846h-23zM19.07692,28.15385c-3.90873,0 -7.07692,-3.1682 -7.07692,-7.07692c0,-3.90873 3.1682,-7.07692 7.07692,-7.07692c3.90873,0 7.07692,3.1682 7.07692,7.07692c0,3.90873 -3.1682,7.07692 -7.07692,7.07692zM19.07692,17.53846c-1.95436,0 -3.53846,1.5841 -3.53846,3.53846c0,1.95436 1.5841,3.53846 3.53846,3.53846c1.95436,0 3.53846,-1.5841 3.53846,-3.53846c0,-1.95436 -1.5841,-3.53846 -3.53846,-3.53846zM19.07692,60c-3.90873,0 -7.07692,-3.1682 -7.07692,-7.07692c0,-3.90873 3.1682,-7.07692 7.07692,-7.07692c3.90873,0 7.07692,3.1682 7.07692,7.07692c0,3.90873 -3.1682,7.07692 -7.07692,7.07692zM19.07692,49.38462c-1.95436,0 -3.53846,1.5841 -3.53846,3.53846c0,1.95436 1.5841,3.53846 3.53846,3.53846c1.95436,0 3.53846,-1.5841 3.53846,-3.53846c0,-1.95436 -1.5841,-3.53846 -3.53846,-3.53846zM50.92308,44.07692c-3.90873,0 -7.07692,-3.1682 -7.07692,-7.07692c0,-3.90873 3.1682,-7.07692 7.07692,-7.07692c3.90873,0 7.07692,3.1682 7.07692,7.07692c0,3.90873 -3.1682,7.07692 -7.07692,7.07692zM50.92308,33.46154c-1.95436,0 -3.53846,1.5841 -3.53846,3.53846c0,1.95436 1.5841,3.53846 3.53846,3.53846c1.95436,0 3.53846,-1.5841 3.53846,-3.53846c0,-1.95436 -1.5841,-3.53846 -3.53846,-3.53846z" id="shadow" fill="#000000" opacity="0.3"/><path d="M56.23077,17.30769v3.53846l-7.38738,7.38738c0.65757,-0.20184 1.35593,-0.31046 2.07969,-0.31046c3.90873,0 7.07692,3.1682 7.07692,7.07692c0,1.95436 -0.79205,3.72359 -2.07269,5.00423l-9.14961,9.14961h9.45307v3.53846l-17.30769,17.30769h-35.42308c-1.933,0 -3.5,-1.567 -3.5,-3.5l0,-38.35462l14.07269,-14.07269c1.28064,-1.28064 3.04987,-2.07269 5.00423,-2.07269c3.90873,0 7.07692,3.1682 7.07692,7.07692c0,1.95436 -0.79205,3.72359 -2.07269,5.00423l-9.14961,9.14961h2.37615l15.92308,-15.92308z" id="flatShadow" fill="#000000" opacity="0.324"/><path d="M33.23077,17.30769h23v3.53846h-23zM33.23077,49.15385h23v3.53846h-23zM13.76923,33.23077h23v3.53846h-23zM19.07692,26.15385c-3.90873,0 -7.07692,-3.1682 -7.07692,-7.07692c0,-3.90873 3.1682,-7.07692 7.07692,-7.07692c3.90873,0 7.07692,3.1682 7.07692,7.07692c0,3.90873 -3.1682,7.07692 -7.07692,7.07692zM19.07692,15.53846c-1.95436,0 -3.53846,1.5841 -3.53846,3.53846c0,1.95436 1.5841,3.53846 3.53846,3.53846c1.95436,0 3.53846,-1.5841 3.53846,-3.53846c0,-1.95436 -1.5841,-3.53846 -3.53846,-3.53846zM19.07692,58c-3.90873,0 -7.07692,-3.1682 -7.07692,-7.07692c0,-3.90873 3.1682,-7.07692 7.07692,-7.07692c3.90873,0 7.07692,3.1682 7.07692,7.07692c0,3.90873 -3.1682,7.07692 -7.07692,7.07692zM19.07692,47.38462c-1.95436,0 -3.53846,1.5841 -3.53846,3.53846c0,1.95436 1.5841,3.53846 3.53846,3.53846c1.95436,0 3.53846,-1.5841 3.53846,-3.53846c0,-1.95436 -1.5841,-3.53846 -3.53846,-3.53846zM50.92308,42.07692c-3.90873,0 -7.07692,-3.1682 -7.07692,-7.07692c0,-3.90873 3.1682,-7.07692 7.07692,-7.07692c3.90873,0 7.07692,3.1682 7.07692,7.07692c0,3.90873 -3.1682,7.07692 -7.07692,7.07692zM50.92308,31.46154c-1.95436,0 -3.53846,1.5841 -3.53846,3.53846c0,1.95436 1.5841,3.53846 3.53846,3.53846c1.95436,0 3.53846,-1.5841 3.53846,-3.53846c0,-1.95436 -1.5841,-3.53846 -3.53846,-3.53846z" id="icon" fill="#ffffff"/></g></svg>

<?xml version="1.0" encoding="UTF-8"?>
<svg width="70px" height="70px" viewBox="0 0 70 70" version="1.1" xmlns="http://www.w3.org/2000/svg" xmlns:xlink="http://www.w3.org/1999/xlink">
    <title>odoo-connector-importer</title>
    <defs>
        <linearGradient x1="100%" y1="0%" x2="0%" y2="100%" id="linearGradient-1">
            <stop stop-color="#FF8451" offset="0%"></stop>
            <stop stop-color="#F4511E" offset="100%"></stop>
        </linearGradient>
    </defs>
    <g id="odoo-connector-importer" stroke="none" stroke-width="1" fill="none" fill-rule="evenodd">
        <g id="icon" fill-rule="nonzero">
            <path d="M3.5,70 C1.567,70 7.10542736e-15,68.433 7.10542736e-15,66.5 L7.10542736e-15,3.5 C7.10542736e-15,1.567 1.567,0 3.5,0 L66.5,0 C68.433,0 70,1.567 70,3.5 L70,66.5 C70,68.433 68.433,70 66.5,70 L3.5,70 Z" id="box" fill="url(#linearGradient-1)"></path>
            <path d="M65,1 L4,1 C2.04967,1 0.7333,1.63396 0.0509,2.90189 C0.33468,1.25383 1.77091,0 3.5,0 L66.5,0 C68.22965,0 69.66627,1.25466 69.94938,2.90352 C69.25135,1.6345 67.60156,1 65,1 Z" id="topBoxShadow" fill="#FFFFFF" opacity="0.383"></path>
            <path d="M4,69 L65,69 C67.66667,69 69.33333,68 70,66 L70,66.5 C70,68.433 68.433,70 66.5,70 L3.5,70 C1.567,70 7.10542736e-15,68.433 7.10542736e-15,66.5 C7.10542736e-15,66.3389 7.10542736e-15,66.17223 7.10542736e-15,66 C0.66667,68 2,69 4,69 Z" id="bottomBoxShadow" fill="#000000" opacity="0.383"></path>
            <path d="M33.23077,19.30769 L56.23077,19.30769 L56.23077,22.84615 L33.23077,22.84615 L33.23077,19.30769 Z M33.23077,51.15385 L56.23077,51.15385 L56.23077,54.69231 L33.23077,54.69231 L33.23077,51.15385 Z M13.76923,35.23077 L36.76923,35.23077 L36.76923,38.76923 L13.76923,38.76923 L13.76923,35.23077 Z M19.07692,28.15385 C15.16819,28.15385 12,24.98565 12,21.07693 C12,17.1682 15.1682,14.00001 19.07692,14.00001 C22.98565,14.00001 26.15384,17.16821 26.15384,21.07693 C26.15384,24.98566 22.98564,28.15385 19.07692,28.15385 Z M19.07692,17.53846 C17.12256,17.53846 15.53846,19.12256 15.53846,21.07692 C15.53846,23.03128 17.12256,24.61538 19.07692,24.61538 C21.03128,24.61538 22.61538,23.03128 22.61538,21.07692 C22.61538,19.12256 21.03128,17.53846 19.07692,17.53846 Z M19.07692,60 C15.16819,60 12,56.8318 12,52.92308 C12,49.01435 15.1682,45.84616 19.07692,45.84616 C22.98565,45.84616 26.15384,49.01436 26.15384,52.92308 C26.15384,56.83181 22.98564,60 19.07692,60 Z M19.07692,49.38462 C17.12256,49.38462 15.53846,50.96872 15.53846,52.92308 C15.53846,54.87744 17.12256,56.46154 19.07692,56.46154 C21.03128,56.46154 22.61538,54.87744 22.61538,52.92308 C22.61538,50.96872 21.03128,49.38462 19.07692,49.38462 Z M50.92308,44.07692 C47.01435,44.07692 43.84616,40.90872 43.84616,37 C43.84616,33.09127 47.01436,29.92308 50.92308,29.92308 C54.83181,29.92308 58,33.09128 58,37 C58,40.90873 54.8318,44.07692 50.92308,44.07692 Z M50.92308,33.46154 C48.96872,33.46154 47.38462,35.04564 47.38462,37 C47.38462,38.95436 48.96872,40.53846 50.92308,40.53846 C52.87744,40.53846 54.46154,38.95436 54.46154,37 C54.46154,35.04564 52.87744,33.46154 50.92308,33.46154 Z" id="shadow" fill="#000000" opacity="0.3"></path>
            <path d="M56.23077,17.30769 L56.23077,20.84615 L48.84339,28.23353 C49.50096,28.03169 50.19932,27.92307 50.92308,27.92307 C54.83181,27.92307 58,31.09127 58,34.99999 C58,36.95435 57.20795,38.72358 55.92731,40.00422 L46.7777,49.15383 L56.23077,49.15383 L56.23077,52.69229 L38.92308,69.99998 L3.5,69.99998 C1.567,69.99998 0,68.43298 0,66.49998 L0,28.14536 L14.07269,14.07267 C15.35333,12.79203 17.12256,11.99998 19.07692,11.99998 C22.98565,11.99998 26.15384,15.16818 26.15384,19.0769 C26.15384,21.03126 25.36179,22.80049 24.08115,24.08113 L14.93154,33.23074 L17.30769,33.23074 L33.23077,17.30766 L56.23077,17.30769 Z" id="flatShadow" fill="#000000" opacity="0.16"></path>
            <path d="M33.23077,17.30769 L56.23077,17.30769 L56.23077,20.84615 L33.23077,20.84615 L33.23077,17.30769 Z M33.23077,49.15385 L56.23077,49.15385 L56.23077,52.69231 L33.23077,52.69231 L33.23077,49.15385 Z M13.76923,33.23077 L36.76923,33.23077 L36.76923,36.76923 L13.76923,36.76923 L13.76923,33.23077 Z M19.07692,26.15385 C15.16819,26.15385 12,22.98565 12,19.07693 C12,15.1682 15.1682,12.00001 19.07692,12.00001 C22.98565,12.00001 26.15384,15.16821 26.15384,19.07693 C26.15384,22.98566 22.98564,26.15385 19.07692,26.15385 Z M19.07692,15.53846 C17.12256,15.53846 15.53846,17.12256 15.53846,19.07692 C15.53846,21.03128 17.12256,22.61538 19.07692,22.61538 C21.03128,22.61538 22.61538,21.03128 22.61538,19.07692 C22.61538,17.12256 21.03128,15.53846 19.07692,15.53846 Z M19.07692,58 C15.16819,58 12,54.8318 12,50.92308 C12,47.01435 15.1682,43.84616 19.07692,43.84616 C22.98565,43.84616 26.15384,47.01436 26.15384,50.92308 C26.15384,54.83181 22.98564,58 19.07692,58 Z M19.07692,47.38462 C17.12256,47.38462 15.53846,48.96872 15.53846,50.92308 C15.53846,52.87744 17.12256,54.46154 19.07692,54.46154 C21.03128,54.46154 22.61538,52.87744 22.61538,50.92308 C22.61538,48.96872 21.03128,47.38462 19.07692,47.38462 Z M50.92308,42.07692 C47.01435,42.07692 43.84616,38.90872 43.84616,35 C43.84616,31.09127 47.01436,27.92308 50.92308,27.92308 C54.83181,27.92308 58,31.09128 58,35 C58,38.90873 54.8318,42.07692 50.92308,42.07692 Z M50.92308,31.46154 C48.96872,31.46154 47.38462,33.04564 47.38462,35 C47.38462,36.95436 48.96872,38.53846 50.92308,38.53846 C52.87744,38.53846 54.46154,36.95436 54.46154,35 C54.46154,33.04564 52.87744,31.46154 50.92308,31.46154 Z" fill="#FFFFFF"></path>
        </g>
    </g>
</svg>
